icon/fa/users-viewfinder.svg

<svg xmlns="http://www.w3.org/2000/svg" viewBox="0 0 640 512"><!--! Font Awesome Free 6.1.2 by @fontawesome - https://fontawesome.com License - https://fontawesome.com/license/free (Icons: CC BY 4.0, Fonts: SIL OFL 1.1, Code: MIT License) Copyright 2022 Fonticons, Inc.--><path d="M48 136c0 13.3-10.75 24-24 24S0 149.3 0 136V32C0 14.33 14.33 0 32 0h104c13.3 0 24 10.75 24 24s-10.7 24-24 24H48v88zm79.8 40c0-26.5 21.5-48 48-48s48 21.5 48 48-21.5 48-48 48-48-21.5-48-48zm90.9 80c9.1 0 17.8 2.3 25.3 6.4-32.4 11.9-57.2 39.5-65.2 73.6h-56.1c-14.8 0-26.7-11.9-26.7-26.7 0-29.4 23.9-53.3 53.3-53.3h69.4zm298.6 80h-56.1c-8-34.1-32.8-61.7-66.1-73.6 8.4-4.1 17.1-6.4 26.2-6.4h69.4c29.4 0 53.3 23.9 53.3 53.3 0 14.8-11.9 26.7-26.7 26.7zM432 360c0 13.3-10.7 24-24 24H232c-13.3 0-24-10.7-24-24 0-8.4 1.4-16.5 4.1-24 8.6-24.3 29-42.6 55-47.9 4.8.2 8.8-.1 12.9-.1h80c4.1 0 8.1.3 12 .1 26 5.3 47.3 23.6 55.9 47.9 2.7 7.5 4.1 15.6 4.1 24zm-16-184c0-26.5 21.5-48 48-48s48 21.5 48 48-21.5 48-48 48-48-21.5-48-48zm-32 16c0 35.3-28.7 64-64 64s-64-28.7-64-64 28.7-64 64-64 64 28.7 64 64zm96-168c0-13.25 10.7-24 24-24h104c17.7 0 32 14.33 32 32v104c0 13.3-10.7 24-24 24s-24-10.7-24-24V48h-88c-13.3 0-24-10.75-24-24zM48 464h88c13.3 0 24 10.7 24 24s-10.7 24-24 24H32c-17.67 0-32-14.3-32-32V376c0-13.3 10.75-24 24-24s24 10.7 24 24v88zm456 0h88v-88c0-13.3 10.7-24 24-24s24 10.7 24 24v104c0 17.7-14.3 32-32 32H504c-13.3 0-24-10.7-24-24s10.7-24 24-24z"/></svg>

<svg xmlns="http://www.w3.org/2000/svg" viewBox="0 0 640 512" height="1em" width="1em">
<!--! Font Awesome Free 6.1.2 by @fontawesome - https://fontawesome.com License - https://fontawesome.com/license/free (Icons: CC BY 4.0, Fonts: SIL OFL 1.1, Code: MIT License) Copyright 2022 Fonticons, Inc.-->
  <path d="M48 136C48 149.3 37.25 160 24 160C10.75 160 0 149.3 0 136V32C0 14.33 14.33 0 32 0H136C149.3 0 160 10.75 160 24C160 37.25 149.3 48 136 48H48V136zM127.8 176C127.8 149.5 149.3 128 175.8 128C202.3 128 223.8 149.5 223.8 176C223.8 202.5 202.3 224 175.8 224C149.3 224 127.8 202.5 127.8 176V176zM218.7 256C227.8 256 236.5 258.3 244 262.4C211.6 274.3 186.8 301.9 178.8 336H122.7C107.9 336 96 324.1 96 309.3C96 279.9 119.9 256 149.3 256H218.7zM517.3 336H461.2C453.2 301.9 428.4 274.3 395.1 262.4C403.5 258.3 412.2 256 421.3 256H490.7C520.1 256 544 279.9 544 309.3C544 324.1 532.1 336 517.3 336H517.3zM432 360C432 373.3 421.3 384 408 384H232C218.7 384 208 373.3 208 360C208 351.6 209.4 343.5 212.1 336C220.7 311.7 241.1 293.4 267.1 288.1C271.9 288.3 275.9 288 280 288H360C364.1 288 368.1 288.3 372 288.1C398 293.4 419.3 311.7 427.9 336C430.6 343.5 432 351.6 432 360zM416 176C416 149.5 437.5 128 464 128C490.5 128 512 149.5 512 176C512 202.5 490.5 224 464 224C437.5 224 416 202.5 416 176zM384 192C384 227.3 355.3 256 320 256C284.7 256 256 227.3 256 192C256 156.7 284.7 128 320 128C355.3 128 384 156.7 384 192zM480 24C480 10.75 490.7 0 504 0H608C625.7 0 640 14.33 640 32V136C640 149.3 629.3 160 616 160C602.7 160 592 149.3 592 136V48H504C490.7 48 480 37.25 480 24zM48 464H136C149.3 464 160 474.7 160 488C160 501.3 149.3 512 136 512H32C14.33 512 0 497.7 0 480V376C0 362.7 10.75 352 24 352C37.25 352 48 362.7 48 376V464zM504 464H592V376C592 362.7 602.7 352 616 352C629.3 352 640 362.7 640 376V480C640 497.7 625.7 512 608 512H504C490.7 512 480 501.3 480 488C480 474.7 490.7 464 504 464z"/>
</svg>
